!!!OTL: Jaeger und Graefin.
!!!ARE: Europa, Mitteleuropa, Deutschland
!!!SCT: A0438
!!!TXL: @@NDS
!!!YEM: Copyright 1995, estate of Helmut Schaffrath.
**kern	**text
!! Mixed meters:  4/2; 6/2
*M6/2	*
*met(c|)	*
*clefC4	*
*k[b-]	*
*F:ion	*
!LO:TX:a:t=jon. F.	!
!LO:N:vis=1	!
2ryy	.
{2F	Es
=1	=1
*M4/2	*
2F	wolt
2F	ein
2F	Jä-
2F	-ger
=2	=2
*M6/2	*
1E	ja-
1C	-gen,
2r}	.
{2C	ja-
=3	=3
1F	-gen
2G	vor
1A	ei-
2B-	-nem
=4	=4
0G	holʒ,}
2r}	.
{2F	Be-
=1	=1
*M4/2	*
2F	-geg_net
2F	ihm
2F	auf
2F	der
=2	=2
*M6/2	*
1E	hei-
1C	-den
2r}	.
{2C	ein
=3	=3
1F	mei-
2G	-lein
1A	das
2B-	war
=4	=4
0G	ſtolʒ,}
2r}	.
{2G	Jn
=5	=5
*M4/2	*
2A	ſchö-
2A	-nen
2B-	wei-
2B-	-ßen
=6	=6
*M6/2	*
1c	kleiden
1c	.
2r}	.
{2c	ein
=7	=7
*M4/2	*
*lig	*
2.B-	ſchö-
4A	.
*Xlig	*
2G	-ne
*lig	*
1A	gra-
=8-	=8-
.	.
2B-	.
*Xlig	*
1G	-ſe-
=9	=9
*M6/2	*
0F}	-rin,
{1A	ein
=10	=10
1c	ſchö-
2A	-ne
2B-	gra-
1G	-ſe-
=11	=11
0F/ll}	-rin.
==	==
!!!GTL: Jägerlieder und Jägerromanzen
!!!AGN: Romanze, Ballade, Lied, Jaegerlied
!! Forster IV 1556 No. 17.
!!!ONB: ESAC (Essen Associative Code) Database: ALTDEU
!!!AMT: irregular
!!!AIN: vox
!!!EED: Helmut Schaffrath
!!!EEV: 1.0
!!!RDF**kern: l = terminal long
!!!AMD: Ionian
!!!URL-scan: https://rosdok.uni-rostock.de/mcrviewer/recordIdentifier/rosdok_ppn738218359/iview2/phys_0616.iview2?x=-27.342981878423416&y=2015.8047593384981&scale=0.6340035897852&rotation=0&layout=singlePageLayout&logicalDiv=log_0016
!!!ENC: Anna Maria Matuszewska
!!!EEV: 2024/18/03
*-	*-
